svgs/sharp-light/note-medical.svg

<svg xmlns="http://www.w3.org/2000/svg" viewBox="0 0 448 512"><!--! Font Awesome Pro 6.6.0 by @fontawesome - https://fontawesome.com License - https://fontawesome.com/license (Commercial License) Copyright 2024 Fonticons, Inc. --><path d="M416 64L32 64l0 384 256 0 0-112 0-16 16 0 112 0 0-256zM394.7 352L320 352l0 74.7L394.7 352zm53.3-8L312 480 32 480 0 480l0-32L0 64 0 32l32 0 384 0 32 0 0 32 0 280zM192 112l64 0 16 0 0 16 0 48 48 0 16 0 0 16 0 64 0 16-16 0-48 0 0 48 0 16-16 0-64 0-16 0 0-16 0-48-48 0-16 0 0-16 0-64 0-16 16 0 48 0 0-48 0-16 16 0zm16 80l0 16-16 0-48 0 0 32 48 0 16 0 0 16 0 48 32 0 0-48 0-16 16 0 48 0 0-32-48 0-16 0 0-16 0-48-32 0 0 48z"/></svg>

<svg xmlns="http://www.w3.org/2000/svg" viewBox="0 0 448 512"><!--! Font Awesome Pro 6.4.0 by @fontawesome - https://fontawesome.com License - https://fontawesome.com/license (Commercial License) Copyright 2023 Fonticons, Inc. --><path d="M416 64H32V448H288V336 320h16H416V64zM394.7 352H320v74.7L394.7 352zm53.3-8L312 480H32 0V448 64 32H32 416h32V64 344zM192 112h64 16v16 48h48 16v16 64 16H320 272v48 16H256 192 176V320 272H128 112V256 192 176h16 48V128 112h16zm16 80v16H192 144v32h48 16v16 48h32V256 240h16 48V208H256 240V192 144H208v48z"/></svg>
